X:995
T:Jenny Picking Cockles
R:reel
Z:transcribed by Dave Marshall
M:C|
K:Dmix
|: Addc AGEF | GEcE dEcE | Addc AGEF | GEcE EDD2 |
dedc AGEF | GE~E2 ~c3d | ecdc AGEF | GEcE EDD2 :|
|: ~f3f efed | c~A3 cAG2 | ~f3f ed^cd | eaag edd2 |
~f3f efed | cAAB ~c3d | ecdc AGEF | GEcE EDD2 :|
